svgs/camera-outline.svg

<svg xmlns="http://www.w3.org/2000/svg" viewBox="0 0 24 24"><path d="M20 4h-3.17L15 2H9L7.17 4H4a2 2 0 0 0-2 2v12a2 2 0 0 0 2 2h16a2 2 0 0 0 2-2V6a2 2 0 0 0-2-2m0 14H4V6h4.05l1.83-2h4.24l1.83 2H20v12M12 7a5 5 0 0 0-5 5 5 5 0 0 0 5 5 5 5 0 0 0 5-5 5 5 0 0 0-5-5m0 8a3 3 0 0 1-3-3 3 3 0 0 1 3-3 3 3 0 0 1 3 3 3 3 0 0 1-3 3Z"/></svg>

<svg xmlns="http://www.w3.org/2000/svg" viewBox="0 0 24 24"><path d="M20,4H16.83L15,2H9L7.17,4H4A2,2 0 0,0 2,6V18A2,2 0 0,0 4,20H20A2,2 0 0,0 22,18V6A2,2 0 0,0 20,4M20,18H4V6H8.05L9.88,4H14.12L15.95,6H20V18M12,7A5,5 0 0,0 7,12A5,5 0 0,0 12,17A5,5 0 0,0 17,12A5,5 0 0,0 12,7M12,15A3,3 0 0,1 9,12A3,3 0 0,1 12,9A3,3 0 0,1 15,12A3,3 0 0,1 12,15Z" /></svg>
